X: 40397
T: Tom Keane's
R: reel
M: 4/4
K: Gmajor
dc|BGGA BGdc|BGGE =F3 A|BGGA BGdc|BGAF G2:|
dggf dedc|Bcde =f3e|dggf dedc|BGAF G2:|

